icon/pk/bee.svg

<svg viewBox="0 0 48 48" fill="none" xmlns="http://www.w3.org/2000/svg" height="1em" width="1em">
  <path d="M30 28.6957C30 35 27.3137 44 24 44C20.6863 44 18 35 18 28.6957C18 24.9977 20.6863 22 24 22C27.3137 22 30 24.9977 30 28.6957Z" fill="#2F88FF" stroke="black" stroke-width="4"/>
  <path d="M11.4783 17C13.9884 17 20 19.2386 20 22C20 24.7614 13.9884 27 11.4783 27C8.96817 27 6 24.7614 6 22C6 19.2386 8.96817 17 11.4783 17Z" stroke="black" stroke-width="4"/>
  <path d="M36.5217 17C34.0116 17 28 19.2386 28 22C28 24.7614 34.0116 27 36.5217 27C39.0318 27 42 24.7614 42 22C42 19.2386 39.0318 17 36.5217 17Z" stroke="black" stroke-width="4"/>
  <rect x="19" y="9" width="10" height="13" rx="5" fill="#2F88FF" stroke="black" stroke-width="4"/>
  <path d="M28 10C28 6.68629 30.6863 4 34 4" stroke="black" stroke-width="4" stroke-linecap="round"/>
  <path d="M21 10C21 6.68629 17.866 4 14 4" stroke="black" stroke-width="4" stroke-linecap="round"/>
</svg>

<svg width="48" height="48" fill="none" xmlns="http://www.w3.org/2000/svg"><path d="M30 28.696C30 35 27.314 44 24 44s-6-9-6-15.304C18 24.998 20.686 22 24 22s6 2.998 6 6.696Z" fill="#2F88FF" stroke="#000" stroke-width="4"/><path d="M11.478 17C13.988 17 20 19.239 20 22s-6.012 5-8.522 5C8.968 27 6 24.761 6 22s2.968-5 5.478-5ZM36.522 17C34.012 17 28 19.239 28 22s6.012 5 8.522 5C39.032 27 42 24.761 42 22s-2.968-5-5.478-5Z" stroke="#000" stroke-width="4"/><rect x="19" y="9" width="10" height="13" rx="5" fill="#2F88FF" stroke="#000" stroke-width="4"/><path d="M28 10a6 6 0 0 1 6-6M21 10c0-3.314-3.134-6-7-6" stroke="#000" stroke-width="4" stroke-linecap="round"/></svg>
